app/assets/v2/images/kudos/cellarius/oddjobs.svg

<svg version="1.1" id="Layer_1" xmlns="http://www.w3.org/2000/svg" x="0" y="0" viewBox="0 0 110.9 128" xml:space="preserve"><style>.st3{fill:#df9079}.st4{fill:#e6d9a5}</style><path fill="#766a68" d="M55.4 128l55.5-32V32L55.4 0 0 32v64z"/><path d="M101.4 37.4v53.1l-46 26.6-46-26.6V37.4l46-26.6 46 26.6zm9.5 58.6V32L55.4 0 0 32v64l55.4 32 55.5-32z" opacity=".38" fill="#df9079"/><path class="st3" d="M99.1 38.8v50.4l-43.7 25.2-43.6-25.2V38.8l43.7-25.2 43.6 25.2zm-43.7 78.3l46-26.6V37.4l-46-26.6-46 26.6v53.1l46 26.6z" opacity=".13"/><path class="st4" d="M74.5 44.5l.2 30.8 3.3 2-.1-38.9-21.1 12.3 3.5 2z"/><path class="st4" d="M72.9 51v-3.9l-11.1 6.5 3.4 1.9z"/><path class="st3" d="M57.6 63.6L31.2 48.1l.1 41.5-4-2.1V41.8l33.8 19.8z"/><path class="st3" d="M45.7 72.4L37.9 77v3.9l11.2-6.5v-.1z"/><path class="st3" d="M50.6 75.2l-14.3 8.3-.1-30.8-3.4-2 .1 38.9 21.2-12.4z"/><path class="st4" d="M44.3 57.9l-5.9 3.5v4.1l9.4-5.5zM79.1 89.6l3.6-2.1-28.2-16.6-7.8-4.5 6-3.5-3.4-2-10.1 5.8 11.1 6.4z"/><path class="st4" d="M83.6 86.2V40.5l-4-2.1v41.5L60.8 68.8l-7.6-4.4-3.4 2 6 3.5z"/><path class="st3" d="M66 70.3l6.4-3.7v-4.1l-9.9 5.8zM60.8 67.3l.2.1 10.6-6.1-39.8-22.9-3.7 2.1 36 21.1-6.4 3.8z"/></svg>

<?xml version="1.0" encoding="utf-8"?>
<!-- Generator: Adobe Illustrator 22.1.0, SVG Export Plug-In . SVG Version: 6.00 Build 0)  -->
<svg version="1.1" id="Layer_1" xmlns="http://www.w3.org/2000/svg" xmlns:xlink="http://www.w3.org/1999/xlink" x="0px" y="0px"
	 viewBox="0 0 110.9 128" style="enable-background:new 0 0 110.9 128;" xml:space="preserve">
<style type="text/css">
	.st0{fill:#766A68;}
	.st1{opacity:0.38;fill:#DF9079;}
	.st2{opacity:0.13;}
	.st3{fill:#DF9079;}
	.st4{fill:#E6D9A5;}
	.st5{fill:none;stroke:#DF9079;stroke-width:3;stroke-miterlimit:10;}
</style>
<g>
	<polygon class="st0" points="55.4,128 110.9,96 110.9,32 55.4,0 55.4,0 0,32 0,96 	"/>
	<path class="st1" d="M101.4,37.4l0,53.1l-46,26.6l-46-26.6l0-53.1l46-26.6L101.4,37.4z M110.9,96l0-64L55.4,0l0,0L0,32l0,64
		l55.4,32L110.9,96z"/>
	<g class="st2">
		<path class="st3" d="M99.1,38.8l0,50.4l-43.7,25.2L11.8,89.2l0-50.4l43.7-25.2L99.1,38.8z M55.4,117.1l46-26.6l0-53.1l-46-26.6
			l-46,26.6l0,53.1L55.4,117.1z"/>
	</g>
	<g>
		<polygon class="st4" points="74.5,44.5 74.7,75.3 78,77.3 77.9,38.4 56.8,50.7 60.3,52.7 		"/>
		<polygon class="st4" points="72.9,51 72.9,47.1 61.8,53.6 65.2,55.5 		"/>
		<polygon class="st3" points="57.6,63.6 31.2,48.1 31.3,89.6 27.3,87.5 27.3,41.8 61.1,61.6 		"/>
		<polygon class="st3" points="45.7,72.4 37.9,77 37.9,80.9 49.1,74.4 49.1,74.3 49.1,74.3 		"/>
		<polygon class="st3" points="50.6,75.2 36.3,83.5 36.2,52.7 32.8,50.7 32.9,89.6 54.1,77.2 		"/>
		<polygon class="st4" points="44.3,57.9 38.4,61.4 38.4,65.5 47.8,60 		"/>
		<polygon class="st4" points="79.1,89.6 82.7,87.5 54.5,70.9 54.5,70.9 46.7,66.4 52.7,62.9 49.3,60.9 39.2,66.7 50.3,73.1 
			50.3,73.1 		"/>
		<polygon class="st4" points="83.6,86.2 83.6,40.5 79.6,38.4 79.6,79.9 60.8,68.8 60.8,68.8 53.2,64.4 49.8,66.4 55.8,69.9 
			55.8,69.9 		"/>
		<g>
			<polygon class="st3" points="66,70.3 72.4,66.6 72.4,62.5 62.5,68.3 			"/>
			<polygon class="st3" points="60.8,67.3 60.8,67.3 61,67.4 71.6,61.3 31.8,38.4 28.1,40.5 64.1,61.6 57.7,65.4 			"/>
		</g>
	</g>
</g>
</svg>
